teeny/solid/wan.svg

<svg width="15" height="15" viewBox="0 0 15 15" fill="none" xmlns="http://www.w3.org/2000/svg">
<path fill-rule="evenodd" clip-rule="evenodd" d="M0.952935 5L0.0110988 0.604762L0.988901 0.395233L1.97564 5H5.89994L7.02211 1.35295C7.08666 1.14316 7.2805 0.999998 7.5 0.999998C7.7195 0.999998 7.91334 1.14316 7.97789 1.35295L9.10006 5H13.0244L14.0111 0.395233L14.9889 0.604762L14.0471 5H15V6H13.8328L13.1899 9H15V10H12.9756L11.9889 14.6048C11.9412 14.8273 11.7492 14.9896 11.5218 14.9995C11.2945 15.0095 11.089 14.8646 11.0221 14.647L9.59225 10H5.40775L3.97789 14.647C3.91095 14.8646 3.70554 15.0095 3.47816 14.9995C3.25077 14.9896 3.05879 14.8273 3.0111 14.6048L2.02436 10H0V9H1.81008L1.16722 6H0V5H0.952935ZM2.18992 6L2.83278 9H4.66917L5.59225 6H2.18992ZM6.63852 6L5.71544 9H9.28456L8.36148 6H6.63852ZM8.05379 5L7.5 3.20018L6.94621 5H8.05379ZM9.40775 6L10.3308 9H12.1672L12.8101 6H9.40775ZM11.9529 10H10.6385L11.4133 12.5181L11.9529 10ZM4.36148 10H3.04707L3.58667 12.5181L4.36148 10Z" fill="black"/>
</svg>

<svg viewBox="0 0 15 15" xmlns="http://www.w3.org/2000/svg"><path fill-rule="evenodd" d="M.95 5L0 .6 .97.39l.98 4.6h3.92l1.12-3.65c.06-.21.25-.36.47-.36 .21 0 .41.14.47.35l1.12 3.64h3.92l.98-4.61 .97.2 -.95 4.39h.95v1h-1.17l-.65 3h1.81v1h-2.03l-.99 4.6c-.05.22-.24.38-.47.39 -.23.01-.44-.14-.5-.36L9.49 9.93H5.3l-1.43 4.64c-.07.21-.28.36-.5.35 -.23-.01-.42-.18-.47-.4l-.99-4.61H-.12v-1h1.81l-.65-3H-.13v-1h.95Zm1.23 1l.64 3h1.83l.92-3H2.16Zm4.44 0l-.93 3h3.56l-.93-3H6.59Zm1.41-1l-.56-1.8 -.56 1.79h1.1Zm1.35 1l.92 3h1.83l.64-3H9.36Zm2.54 4H10.6l.77 2.51 .53-2.52Zm-7.6 0H3l.53 2.51 .77-2.52Z"/></svg>
